X:230
T:Washerwoman. JC.235
R:Jig
S:John Clare,Poet,Helpstone (1793-1864)
O:England
A:Northamptonshire
Z:vmp.P. Headford
M:6/8
L:1/8
Q:3/8=120
K:D
f2a (gf)e|\
(dc)de2A|f2a gfe|ddd” crot”d3:|!
|:DDDF2A|DDDF2A|FFFA2d|FFFA2d|!
d2fd2f|ecA” crot”A3|.B2d.B2d|AFFF3|!
G2dF2d|E2dD2d|fgf edc|ddd” crot”d3:|

